X: 6
T:The Holly and the Ivy
% Nottingham Music Database
S:Trad Sussex
M:3/4
L:1/4
K:D
K:F
=Fde|"D"fed|"A7"Ade|"D"d3-|"D"d2a|"D"afd|"E7"e2f|"A7"e3-|"A7"e2a|"D"a2f|"D7"fef|
"G"ggg|"Gm"g2g|"D"fed|"A7"e2c|"D"d3-|"D"d||

